X:1
T:Danza del Hada de Azúcar
T:Score
T:Danza del Hada de Azúcar
T:Copyright © 
T:Copyright © 
T:Copyright © 
T:Copyright © 
T:Copyright © 
Z:Score
Z:Copyright ©
%%score 1 { ( 2 5 ) | ( 3 4 ) } 6 7
L:1/8
Q:1/4=100
M:4/4
K:G
V:1 treble nm="Piano" snm="Pno."
V:2 treble nm="Piano" snm="Pno."
V:5 treble 
V:3 treble 
V:4 treble 
V:6 treble nm="Piano" snm="Pno."
V:7 treble nm="Piano" snm="Pno."
V:1
 z8 | z8 | z8 | z8 | z2 ge g2 f2 | ^d2 e2 =dd d2 | ^cc c2 =cc c2 | Bece B2 z2 | z2 GE G2 F2 | %9
 c2 B2 gg g2 | ff f2 ee e2 | ^dfef d2 z2 | z2 ge g2 f2 | ^d2 e2 =dd d2 | ^cc c2 =cc c2 | %15
 Bece B2 z2 | ^c6 B2 | B6 e/d/^c/B/ | A6 B2 | A6 B2 | B2 A2 B2 ^d2 | e2 B2 B2 B2 | B6 e2 | A6 B2 | %24
 B2 A2 B2 ^d2 | e2 B2 B2 B2 | B6 ^c2 | F8 | B,2 C2 B,2 C2 | ^D2 E2 D2 E2 | F2 G2 F2 G2 | A2 c2 B4 | %32
 z2 ge g2 f2 | ^d2 e2 =dd d2 | ^cc c2 =cc c2 | Bece B2 z2 | z2 GE G2 F2 | c2 B2 gg g2 | %38
 ff f2 ee e2 | ^dfef d2 z2 | z2 ge g2 f2 | ^d2 e2 =dd d2 | ^cc c2 =cc c2 | Bece B2 z2 | ^c6 B2 | %45
 B6 e/d/^c/B/ | A6 B2 | z2 ^d2 e2 z2 |] %48
V:2
 E2 e2 E2 f2 | E2 g2 E2 ^d2 | E2 e2 E2 f2 | E2 g2 E2 ^d2 | E2 ge g2 f2 | ^d2 e2 =dd d2 | %6
 ^cc c2 =cc c2 | Bece B2 e/d/c/B/ | ^A2 GE G2 F2 | c2 B2 gg g2 | ff f2 ee e2 | ^dfef d2 B/A/G/F/ | %12
 E2 ge g2 f2 | ^d2 e2 =dd d2 | ^cc c2 =cc c2 | Bece B2 G/F/E/D/ | z2 e^c e2 ^d2 | z2 =dB d2 ^c2 | %18
 z2 =cA c2 B2 | z2 cA c2 B2 | B2 F2 G2 A2 | B2 G2 F2 E2 | B2 F2 G2 A2 | A2 E2 F2 B2 | B2 F2 G2 A2 | %25
 B2 G2 F2 E2 | B2 F2 G2 A2 | A2 E2 F2 B2 | B,2 C2 B,2 C2 | ^D2 E2 D2 E2 | F2 G2 F2 G2 | %31
 A2 c2 B2 B/A/G/F/ | E2 ge g2 f2 | ^d2 e2 =dd d2 | ^cc c2 =cc c2 | Bece B2 e/d/c/B/ | %36
 ^A2 GE G2 F2 | c2 B2 gg g2 | ff f2 ee e2 | ^dfef d2 B/A/G/F/ | E2 ge g2 f2 | ^d2 e2 =dd d2 | %42
 ^cc c2 =cc c2 | Bece B2 G/F/E/D/ | z2 e^c e2 ^d2 | z2 =dB d2 ^c2 | z2 =cA c2 B2 | z2 ^d2 e2 z2 |] %48
V:3
 z2 [GB]2 z2 [Ac]2 | z2 [^A^c]2 z2 [=A=c]2 | z2 [GB]2 z2 [Ac]2 | z2 [^A^c]2 z2 [=A=c]2 | %4
 z2 [GB]2 z2 [Ac]2 | z2 [^A^c]2 z2 [Bd]2 | z2 [^A^c]2 z2 [=A=c]2 | z2 [Ac]2 [GB]2 e/d/c/B/ | %8
 z2 [eg]2 z2 [^df]2 | z2 e2 z2 [^ce]2 | z2 [Bd]2 z2 [^ce]2 | z2 [^ce]2 [B^d]2 z2 | %12
 z2 [GB]2 z2 [A=c]2 | z2 [^A^c]2 z2 [Bd]2 | z2 [^A^c]2 z2 [=A=c]2 | z2 [Ac]2 [GB]2 z2 | %16
 z2 e^c e2 ^d2 | z2 =dB d2 ^c2 | z2 =cA c2 B2 | z2 cA c2 B2 | B2 F2 G2 A2 | B2 G2 F2 E2 | %22
 B2 F2 G2 A2 | A2 E2 F2 B2 | B2 F2 G2 A2 | B2 G2 F2 E2 | B2 F2 G2 A2 | A2 E2 F2 B2 | B8 | B8 | B8 | %31
 B6 B/A/G/F/ | z2 [GB]2 z2 [Ac]2 | z2 [^A^c]2 z2 [Bd]2 | z2 [^A^c]2 z2 [=A=c]2 | %35
 z2 [Ac]2 [GB]2 e/d/c/B/ | z2 [eg]2 z2 [^df]2 | z2 e2 z2 [^ce]2 | z2 [Bd]2 z2 [^ce]2 | %39
 z2 [^ce]2 [B^d]2 z2 | z2 [GB]2 z2 [A=c]2 | z2 [^A^c]2 z2 [Bd]2 | z2 [^A^c]2 z2 [=A=c]2 | %43
 z2 [Ac]2 [GB]2 z2 | z2 e^c e2 ^d2 | z2 =dB d2 ^c2 | z2 =cA c2 B2 | z2 ^d2 e2 z2 |] %48
V:4
 E2 z2 E2 z2 | E2 z2 E2 z2 | E2 z2 E2 z2 | E2 z2 E2 z2 | E2 z2 E2 z2 | E2 z2 E2 z2 | E2 z2 E2 z2 | %7
 E2 z2 E2 z2 | ^A2 z2 =A2 z2 | G2 z2 F2 z2 | F2 z2 F2 z2 | F2 z2 F2 B/A/G/F/ | E2 z2 E2 z2 | %13
 E2 z2 E2 z2 | E2 z2 E2 z2 | E2 z2 E2 G/F/E/D/ | ^C6 F/E/^D/C/ | B,6 E/=D/^C/B,/ | A,8 | D8 | x8 | %21
 x8 | x8 | x8 | x8 | x8 | x8 | x8 | x8 | x8 | x8 | x8 | E2 z2 E2 z2 | E2 z2 E2 z2 | E2 z2 E2 z2 | %35
 E2 z2 E2 z2 | ^A2 z2 =A2 z2 | G2 z2 F2 z2 | F2 z2 F2 z2 | F2 z2 F2 B/A/G/F/ | E2 z2 E2 z2 | %41
 E2 z2 E2 z2 | E2 z2 E2 z2 | E2 z2 E2 G/F/E/D/ | ^C6 F/E/^D/C/ | B,6 E/=D/^C/B,/ | A,8 | x8 |] %48
V:5
 x8 | x8 | x8 | x8 | x8 | x8 | x8 | x8 | x8 | x8 | x8 | x8 | x8 | x8 | x8 | x8 | ^C8 | E8 | D8 | %19
 D8 | x8 | x8 | x8 | x8 | x8 | x8 | x8 | x8 | x8 | x8 | x8 | x8 | x8 | x8 | x8 | x8 | x8 | x8 | %38
 x8 | x8 | x8 | x8 | x8 | x8 | ^C8 | E8 | D8 | x8 |] %48
V:6
 E2 E2 E2 F2 | E2 G2 E2 A2 | E2 E2 E2 F2 | E2 G2 E2 A2 | E2 G2 E2 A2 | E2 E2 D2 D2 | E2 E2 E2 E2 | %7
 E2 A2 G2 z2 | z2 E2 G2 F2 | G2 E2 G2 G2 | F2 F2 E2 E2 | F2 E2 F2 z2 | E2 G2 E2 A2 | E2 E2 D2 D2 | %14
 E2 E2 E2 E2 | E2 A2 G2 z2 | F2 E2 E2 F2 | E2 D2 D2 E2 | D2 D2 D2 D2 | D2 D2 D2 D2 | B8 | B8 | B8 | %23
 B8 | B8 | B8 | B8 | A8 | B8 | B8 | B8 | B8 | E2 G2 E2 A2 | E2 E2 D2 D2 | E2 E2 E2 E2 | %35
 E2 A2 G2 z2 | z2 E2 G2 F2 | G2 E2 G2 G2 | F2 F2 E2 E2 | F2 E2 F2 z2 | E2 G2 E2 A2 | E2 E2 D2 D2 | %42
 E2 E2 E2 E2 | E2 A2 G2 z2 | F2 E2 E2 F2 | E2 D2 D2 E2 | D2 D2 D2 D2 | z2 B2 B2 z2 |] %48
V:7
 E2 G2 E2 F2 | E2 G2 E2 A2 | E2 G2 E2 F2 | E2 G2 E2 A2 | E2 B2 B2 A2 | E2 G2 E2 B2 | E2 G2 E2 A2 | %7
 E2 A2 E2 z2 | z2 E2 G2 F2 | G2 E2 GG G2 | FF F2 EE E2 | F2 E2 F2 z2 | E2 B2 B2 A2 | E2 G2 E2 B2 | %14
 E2 G2 E2 A2 | E2 A2 E2 z2 | F2 E2 E2 F2 | E2 D2 D2 A2 | D2 A2 A2 G2 | D2 A2 A2 G2 | B8 | B8 | B8 | %23
 B8 | B8 | B8 | E6 E2 | F8 | B8 | B8 | B8 | A2 E2 F4 | E2 B2 B2 A2 | E2 G2 E2 B2 | E2 G2 E2 A2 | %35
 E2 A2 E2 z2 | z2 E2 G2 F2 | G2 E2 GG G2 | FF F2 EE E2 | F2 E2 F2 z2 | E2 B2 B2 A2 | E2 G2 E2 B2 | %42
 E2 G2 E2 A2 | E2 A2 E2 z2 | F2 E2 E2 G2 | E2 D2 D2 A2 | D2 A2 A2 G2 | z2 F2 G2 z2 |] %48

